svg/SJJB-OpenStreetMapIcons/transport/fuel.svg

<?xml version="1.0" encoding="UTF-8" standalone="no"?>
<!-- Created with Inkscape (http://www.inkscape.org/) -->
<svg
   xmlns:dc="http://purl.org/dc/elements/1.1/"
   xmlns:cc="http://creativecommons.org/ns#"
   xmlns:rdf="http://www.w3.org/1999/02/22-rdf-syntax-ns#"
   xmlns:svg="http://www.w3.org/2000/svg"
   xmlns="http://www.w3.org/2000/svg"
   xmlns:sodipodi="http://sodipodi.sourceforge.net/DTD/sodipodi-0.dtd"
   xmlns:inkscape="http://www.inkscape.org/namespaces/inkscape"
   version="1.0"
   width="580"
   height="580"
   id="svg2"
   sodipodi:version="0.32"
   inkscape:version="0.46"
   sodipodi:docname="fuel.svg"
   inkscape:output_extension="org.inkscape.output.svg.inkscape">
  <metadata
     id="metadata10">
    <rdf:RDF>
      <cc:Work
         rdf:about="">
        <dc:format>image/svg+xml</dc:format>
        <dc:type
           rdf:resource="http://purl.org/dc/dcmitype/StillImage" />
			  <cc:license
           rdf:resource="http://web.resource.org/cc/PublicDomain" />
        <dc:language>en</dc:language>
      </cc:Work>
    </rdf:RDF>
  </metadata>
  <sodipodi:namedview
     inkscape:window-height="1005"
     inkscape:window-width="1280"
     inkscape:pageshadow="2"
     inkscape:pageopacity="0.0"
     guidetolerance="10.0"
     gridtolerance="10.0"
     objecttolerance="10.0"
     borderopacity="1.0"
     bordercolor="#666666"
     pagecolor="#ffffff"
     id="base"
     showgrid="false"
     inkscape:zoom="0.70710678"
     inkscape:cx="58.821176"
     inkscape:cy="447.56013"
     inkscape:window-x="0"
     inkscape:window-y="0"
     inkscape:current-layer="svg2" />
  <defs
     id="defs4">
    <inkscape:perspective
       sodipodi:type="inkscape:persp3d"
       inkscape:vp_x="0 : 290 : 1"
       inkscape:vp_y="0 : 1000 : 0"
       inkscape:vp_z="580 : 290 : 1"
       inkscape:persp3d-origin="290 : 193.33333 : 1"
       id="perspective12" />
    <style
       type="text/css"
       id="style6">
   
    .fil0 {fill:#EF7900}
   
  </style>
    <inkscape:perspective
       id="perspective6807"
       inkscape:persp3d-origin="29.116032 : 19.410688 : 1"
       inkscape:vp_z="58.232063 : 29.116032 : 1"
       inkscape:vp_y="0 : 1000 : 0"
       inkscape:vp_x="0 : 29.116032 : 1"
       sodipodi:type="inkscape:persp3d" />
    <inkscape:perspective
       id="perspective6954"
       inkscape:persp3d-origin="290 : 193.33333 : 1"
       inkscape:vp_z="580 : 290 : 1"
       inkscape:vp_y="0 : 1000 : 0"
       inkscape:vp_x="0 : 290 : 1"
       sodipodi:type="inkscape:persp3d" />
    <marker
       viewBox="0 0 10 10"
       refY="5"
       refX="10"
       orient="auto"
       markerWidth="4"
       markerUnits="strokeWidth"
       markerHeight="3"
       id="ArrowStart">
      <path
         id="path2295"
         d="M 10 0 L 0 5 L 10 10 z" />
    </marker>
    <marker
       viewBox="0 0 10 10"
       refY="5"
       refX="0"
       orient="auto"
       markerWidth="4"
       markerUnits="strokeWidth"
       markerHeight="3"
       id="ArrowEnd">
      <path
         id="path2292"
         d="M 0 0 L 10 5 L 0 10 z" />
    </marker>
    <inkscape:perspective
       id="perspective7597"
       inkscape:persp3d-origin="178.5405 : 158.483 : 1"
       inkscape:vp_z="357.08099 : 237.7245 : 1"
       inkscape:vp_y="0 : 1000 : 0"
       inkscape:vp_x="0 : 237.7245 : 1"
       sodipodi:type="inkscape:persp3d" />
    <marker
       viewBox="0 0 10 10"
       refY="5"
       refX="10"
       orient="auto"
       markerWidth="4"
       markerUnits="strokeWidth"
       markerHeight="3"
       id="marker8025">
      <path
         id="path8027"
         d="M 10,0 L 0,5 L 10,10 L 10,0 z " />
    </marker>
    <marker
       viewBox="0 0 10 10"
       refY="5"
       refX="0"
       orient="auto"
       markerWidth="4"
       markerUnits="strokeWidth"
       markerHeight="3"
       id="marker8021">
      <path
         id="path8023"
         d="M 0,0 L 10,5 L 0,10 L 0,0 z " />
    </marker>
    <inkscape:perspective
       id="perspective8018"
       inkscape:persp3d-origin="205.96652 : 131.6262 : 1"
       inkscape:vp_z="411.93304 : 197.4393 : 1"
       inkscape:vp_y="0 : 1000 : 0"
       inkscape:vp_x="0 : 197.4393 : 1"
       sodipodi:type="inkscape:persp3d" />
    <inkscape:perspective
       id="perspective8269"
       inkscape:persp3d-origin="99.087723 : 77.339676 : 1"
       inkscape:vp_z="198.17545 : 116.00951 : 1"
       inkscape:vp_y="0 : 1000 : 0"
       inkscape:vp_x="0 : 116.00951 : 1"
       sodipodi:type="inkscape:persp3d" />
  </defs>
  <g
     id="g1327">
    <path
       d="M 66.275,1.768 C 24.94,1.768 1.704,23.139 1.704,66.804 L 1.704,516.927 C 1.704,557.771 22.598,579.156 63.896,579.156 L 515.92,579.156 C 557.227,579.156 578.149,558.84 578.149,516.927 L 578.149,66.804 C 578.149,24.203 557.227,1.768 514.627,1.768 C 514.624,1.768 66.133,1.625 66.275,1.768 z"
       style="fill:#111111;stroke:#eeeeee;stroke-width:3.40799999"
       id="path1329" />
  </g>
  <g
     id="g2319"
     transform="translate(879.29125,36.805119)">
    <path
       id="path2323"
       style="fill:#ffffff;stroke:none"
       d="" />
  </g>
  <g
     id="g2325"
     transform="translate(879.29125,36.805119)">
    <path
       id="path2329"
       style="fill:#ffffff;stroke:none"
       d="" />
  </g>
  <path
     style="fill:#ffffff;fill-opacity:1;fill-rule:evenodd;stroke:none;stroke-width:1px;stroke-linecap:butt;stroke-linejoin:miter;stroke-opacity:1"
     d="M 249,111.75 C 240.51758,111.75 232.0625,117.88064 232.0625,127.6875 L 231.875,442.9375 L 249.3125,442.9375 L 249.46875,467.875 L 409.5625,467.78125 L 409.6875,442.9375 L 424.6875,443.0625 L 424.6875,124.4375 C 424.68751,117.64142 420.75087,111.75 413.34375,111.75 L 249,111.75 z M 275.78125,146.59375 L 380.6875,146.59375 C 386.49577,146.59375 391.06251,148.95926 391.0625,156.96875 L 391.0625,239.84375 C 391.0625,245.45746 388.06163,249.53125 381.65625,249.53125 L 276.0625,249.25 C 269.96423,249.25 264.71875,244.74463 264.71875,238.1875 L 265.25,156.6875 C 265.25,150.1638 269.76979,146.59375 275.78125,146.59375 z"
     id="path1897" />
  <path
     d="M 232.83211,220.10791 L 216.8105,220.01303 C 216.70662,285.20608 217.18175,413.86794 217.45327,416.06937 C 218.03287,420.76868 217.68239,425.63716 216.47581,430.07245 C 191.35934,493.34558 110.08776,464.28417 121.62727,402.71575 C 146.97207,341.64522 182.51061,300.32073 200.19813,228.29037 L 201.77268,281.83519 C 185.8545,312.81087 157.77166,367.21167 135.99276,412.68501 C 134.15788,454.66887 184.10162,468.50125 199.74349,423.43723 C 206.71402,344.55555 199.48141,258.5723 199.35038,176.13983 C 209.5149,145.92256 220.73039,143.03014 232.11247,144.46938"
     style="fill:#ffffff;fill-opacity:1;fill-rule:evenodd;stroke:none;stroke-width:1px;stroke-linecap:butt;stroke-linejoin:miter;stroke-opacity:1"
     id="path1899" />
</svg>

<svg xmlns="http://www.w3.org/2000/svg" viewBox="0 0 580 580"><path d="m66.28 1.768c-41.34 0-64.57 21.371-64.57 65.04v450.12c0 40.844 20.894 62.23 62.19 62.23h452.02c41.31 0 62.23-20.316 62.23-62.23v-450.12c0-42.601-20.922-65.04-63.52-65.04-.003 0-448.49-.143-448.35 0z" fill="#111" stroke="#eee" stroke-width="3.408"/><g fill="#fff" fill-rule="evenodd"><path d="m249 111.75c-8.482 0-16.938 6.131-16.938 15.938l-.188 315.25h17.438l.156 24.938 160.09-.094.125-24.844 15 .125v-318.62c0-6.796-3.937-12.688-11.344-12.688h-164.34m26.781 34.844h104.91c5.808 0 10.375 2.366 10.375 10.375v82.87c0 5.614-3 9.688-9.406 9.688l-105.59-.281c-6.098 0-11.344-4.505-11.344-11.06l.531-81.5c0-6.524 4.52-10.09 10.531-10.09"/><path d="m232.83 220.11l-16.02-.095c-.104 65.19.371 193.85.643 196.06.58 4.699.229 9.568-.977 14-25.12 63.27-106.39 34.21-94.85-27.357 25.345-61.07 60.883-102.4 78.57-174.43l1.575 53.54c-15.918 30.976-44 85.38-65.78 130.85-1.835 41.984 48.11 55.816 63.751 10.752 6.971-78.882-.262-164.86-.393-247.3 10.165-30.22 21.38-33.11 32.762-31.67"/></g></svg>
